X: 48
M: 6/8
L: 1/8
P: Leisurely
K: Edor
~B2"b."B B<cA | B2c d2e | d2B BAF | DEF AFA |
~B2"b."B BcA | B2c d2A | Bcd F2"a."A | E3- E2 :|
P: Var:
"a."F || "b."c |]


